X: 1
T: Juniper Jig
C: Charles Fraser Sherrit
D: Natalie MacMaster "Fit as a Fiddle"
B: RSCDS 45-8
Z: 2016 John Chambers <jc:trillian.mit.edu>
R: Jig
M: 6/8
K: A
L: 1/8
|: e |\
"A"aga ecA | "D"FAd fed | "A"cee "F#m"Acc | "Bm"Bcd "E7"efg |\
"A"aga ecA | "D"FAd fed | "A"cec "E7"dBG | "A"A3 A2 :| 
=G |\
"D"FAd fed | fed agf | "A"ecA EAc | EAc cBA |\
"E7"GBB EBB | GBB EBB | "A"AGA "E7"BAB | "A"c2 A "A7"AG=G || 
"D"FAd fed | fed agf | "A"ecA EAc | EAc cBA |\
"E7"GBB EBB | GBB E2 e | "E7"gfe [ed][fc][gB] | "A"[a3A3] [a2A2] |] 
